source/images/logo/swift.svg

<svg fill="none" height="72" viewBox="0 0 73 72" width="73" xmlns="http://www.w3.org/2000/svg" xmlns:xlink="http://www.w3.org/1999/xlink"><linearGradient id="a" gradientUnits="userSpaceOnUse" x1="43.3316" x2="29.7284" y1="-2.56916" y2="74.5781"><stop offset="0" stop-color="#faae42"/><stop offset="1" stop-color="#ef3e31"/></linearGradient><linearGradient id="b" gradientUnits="userSpaceOnUse" x1="37.2345" x2="27.2786" y1="1.16333" y2="57.6261"><stop offset="0" stop-color="#e39f3a"/><stop offset="1" stop-color="#d33929"/></linearGradient><clipPath id="c"><path d="m.5 0h72v72h-72z"/></clipPath><g clip-path="url(#c)"><path d="m16.5031 0h39.8813c1.9406 0 3.825.309375 5.6531.95625 2.6437.95625 5.0344 2.64375 6.8344 4.8375 1.8281 2.19375 3.0375 4.89375 3.4593 7.70625.1688 1.0406.1969 2.0812.1969 3.1219v36.1687 2.7281c0 1.2375-.0562 2.5032-.3093 3.7126-.5626 2.7843-1.8844 5.3999-3.7969 7.5093-1.8844 2.1094-4.3594 3.6844-7.0313 4.5281-1.6312.5063-3.3187.7313-5.0344.7313-.7593 0-39.9656 0-40.5562-.0281-2.8688-.1407-5.7094-1.0688-8.1-2.6719-2.33438-1.575-4.24688-3.7688-5.48438-6.3-1.06875-2.1656-1.603121-4.5844-1.603121-7.0031 0-.5625 0-39.4313 0-39.9938-.05625-2.3906.450001-4.7531 1.490621-6.8906 1.20938-2.53125 3.09375-4.75312 5.42813-6.32813 2.39062-1.63125 5.20315-2.587495 8.07185-2.72812.2813-.05625.5906-.05625.9-.05625z" fill="url(#a)"/><path d="m61.25 58.8937c-.2531-.3937-.5344-.7874-.8438-1.1531-.7031-.8437-1.5187-1.575-2.4187-2.1937-1.125-.7594-2.4469-1.2375-3.7969-1.2938-.9562-.0562-1.9125.1125-2.8125.45-.9.3094-1.7719.7594-2.6156 1.2094-.9844.5063-1.9688 1.0125-3.0094 1.4344-1.2375.5062-2.5312.9-3.8531 1.1812-1.6594.3094-3.3469.4219-5.0063.3938-3.0093-.0563-6.0187-.5063-8.8875-1.35-2.5312-.7594-4.95-1.8-7.2281-3.1219-1.9969-1.1531-3.8531-2.475-5.5969-3.9656-1.4343-1.2375-2.7562-2.5594-3.9937-3.9657-.8438-.9843-1.65938-2.025-2.41875-3.0937-.30938-.4219-.59063-.8719-.84375-1.3219l-7.425-8.0156v-18.1406c0-8.80315 7.11562-15.9469 15.9187-15.9469h14.2032l10.5187 10.6875c23.7375 16.1438 16.0594 33.9469 16.0594 33.9469s6.75 7.5937 4.05 14.2593z" fill="url(#b)"/><path d="m41.1969 10.6875c23.7375 16.1438 16.0594 33.9469 16.0594 33.9469s6.75 7.6218 4.0219 14.2875c0 0-2.7844-4.6688-7.4531-4.6688-4.5 0-7.1438 4.6688-16.2001 4.6688-20.1656 0-29.69995-16.8469-29.69995-16.8469 18.16875 11.9531 30.57185 3.4875 30.57185 3.4875-8.1844-4.7531-25.5937-27.4781-25.5937-27.4781 15.1593 12.9094 21.7125 16.3125 21.7125 16.3125-3.9094-3.2344-14.8782-19.0407-14.8782-19.0407 8.775 8.8875 26.2126 21.2907 26.2126 21.2907 4.95-13.725-4.7532-25.9594-4.7532-25.9594z" fill="#fff"/></g></svg>

<svg width="73" height="72" viewBox="0 0 73 72" fill="none" xmlns="http://www.w3.org/2000/svg">
<g clip-path="url(#clip0)">
<path d="M16.5031 0C16.925 0 55.6812 0 56.3844 0C58.325 0 60.2094 0.309375 62.0375 0.95625C64.6812 1.9125 67.0719 3.6 68.8719 5.79375C70.7 7.9875 71.9094 10.6875 72.3312 13.5C72.5 14.5406 72.5281 15.5812 72.5281 16.6219C72.5281 17.5781 72.5281 51.2719 72.5281 52.7906C72.5281 53.6906 72.5281 54.6187 72.5281 55.5187C72.5281 56.7562 72.4719 58.0219 72.2188 59.2313C71.6562 62.0156 70.3344 64.6312 68.4219 66.7406C66.5375 68.85 64.0625 70.425 61.3906 71.2687C59.7594 71.775 58.0719 72 56.3562 72C55.5969 72 16.3906 72 15.8 71.9719C12.9312 71.8312 10.0906 70.9031 7.7 69.3C5.36562 67.725 3.45312 65.5312 2.21562 63C1.14687 60.8344 0.612499 58.4156 0.612499 55.9969C0.612499 55.4344 0.612499 16.5656 0.612499 16.0031C0.556249 13.6125 1.0625 11.25 2.10312 9.1125C3.3125 6.58125 5.19687 4.35938 7.53125 2.78437C9.92187 1.15312 12.7344 0.196875 15.6031 0.05625C15.8844 0 16.1937 0 16.5031 0Z" fill="url(#paint0_linear)"/>
<path d="M61.25 58.8937C60.9969 58.5 60.7156 58.1063 60.4062 57.7406C59.7031 56.8969 58.8875 56.1656 57.9875 55.5469C56.8625 54.7875 55.5406 54.3094 54.1906 54.2531C53.2344 54.1969 52.2781 54.3656 51.3781 54.7031C50.4781 55.0125 49.6062 55.4625 48.7625 55.9125C47.7781 56.4188 46.7937 56.925 45.7531 57.3469C44.5156 57.8531 43.2219 58.2469 41.9 58.5281C40.2406 58.8375 38.5531 58.95 36.8937 58.9219C33.8844 58.8656 30.875 58.4156 28.0062 57.5719C25.475 56.8125 23.0562 55.7719 20.7781 54.45C18.7812 53.2969 16.925 51.975 15.1812 50.4844C13.7469 49.2469 12.425 47.925 11.1875 46.5187C10.3437 45.5344 9.52812 44.4937 8.76875 43.425C8.45937 43.0031 8.17812 42.5531 7.925 42.1031L0.5 34.0875V15.9469C0.5 7.14375 7.61562 0 16.4187 0H30.6219L41.1406 10.6875C64.8781 26.8313 57.2 44.6344 57.2 44.6344C57.2 44.6344 63.95 52.2281 61.25 58.8937Z" fill="url(#paint1_linear)"/>
<path d="M41.1969 10.6875C64.9344 26.8313 57.2563 44.6344 57.2563 44.6344C57.2563 44.6344 64.0063 52.2562 61.2782 58.9219C61.2782 58.9219 58.4938 54.2531 53.8251 54.2531C49.3251 54.2531 46.6813 58.9219 37.625 58.9219C17.4594 58.9219 7.92505 42.075 7.92505 42.075C26.0938 54.0281 38.4969 45.5625 38.4969 45.5625C30.3125 40.8094 12.9032 18.0844 12.9032 18.0844C28.0625 30.9938 34.6157 34.3969 34.6157 34.3969C30.7063 31.1625 19.7375 15.3562 19.7375 15.3562C28.5125 24.2437 45.9501 36.6469 45.9501 36.6469C50.9001 22.9219 41.1969 10.6875 41.1969 10.6875Z" fill="white"/>
</g>
<defs>
<linearGradient id="paint0_linear" x1="43.3316" y1="-2.56916" x2="29.7284" y2="74.5781" gradientUnits="userSpaceOnUse">
<stop stop-color="#FAAE42"/>
<stop offset="1" stop-color="#EF3E31"/>
</linearGradient>
<linearGradient id="paint1_linear" x1="37.2345" y1="1.16333" x2="27.2786" y2="57.6261" gradientUnits="userSpaceOnUse">
<stop stop-color="#E39F3A"/>
<stop offset="1" stop-color="#D33929"/>
</linearGradient>
<clipPath id="clip0">
<rect width="72" height="72" fill="white" transform="translate(0.5)"/>
</clipPath>
</defs>
</svg>
